static/assets/images/tokens/op-mono.svg

<svg xmlns="http://www.w3.org/2000/svg" fill="none" viewBox="0 0 256 256"><path fill="#000" fill-rule="evenodd" d="M256 128a128 128 0 0 1-37.49 90.51 128.003 128.003 0 0 1-181.02 0A128.001 128.001 0 1 1 256 128M100.608 82.432c22.528 5.888 30.208 35.84 17.152 66.048-14.592 32.512-57.344 35.84-68.608 5.12-5.888-18.944 0-45.568 12.8-59.392 10.496-11.008 25.856-15.36 38.656-11.776m-15.36 15.36c-11.264 2.56-17.92 15.36-19.712 36.864-.768 16.384 4.352 24.832 15.36 24.832 14.592 0 24.064-17.152 24.064-41.984 0-11.264-2.56-16.384-8.448-18.944-2.56-1.792-7.936-1.792-11.264-.768m121.6 23.04c6.912-17.152-5.12-35.328-21.248-37.632-15.872-2.304-36.864-.768-36.864-.768-2.56.768-4.352 2.56-5.12 6.656l-13.824 79.104c-1.024 5.888 2.56 5.888 8.704 5.888h2.816c5.888.256 6.4.256 9.216-16.384.307-1.798.569-3.401.803-4.83 1.129-6.914 1.596-9.769 3.293-11.042 1.297-.81 3.004-.697 5.901-.505 1.679.111 3.757.249 6.387.249 27.136 0 36.096-10.496 39.936-20.736M185.6 101.888c8.192 4.608 5.12 18.944-8.448 23.296-3.84 1.536-8.448 1.536-11.776 1.28-.659 0-1.31.008-1.942.015-3.052.035-5.658.065-6.506-.783-1.233-1.48-.566-4.622 1.087-12.403l.193-.909c1.607-7.889 2.297-11.276 4.354-12.73 1.547-1.094 3.867-1.094 7.934-1.094 7.68 0 11.008 1.024 15.104 3.328" clip-rule="evenodd"/></svg>

<svg width="256" height="256" viewBox="0 0 256 256" fill="none" xmlns="http://www.w3.org/2000/svg">
<path fill-rule="evenodd" clip-rule="evenodd" d="M256 128C256 161.948 242.514 194.505 218.51 218.51C194.505 242.514 161.948 256 128 256C94.0523 256 61.495 242.514 37.4903 218.51C13.4857 194.505 0 161.948 0 128C0 94.0523 13.4857 61.495 37.4903 37.4903C61.495 13.4857 94.0523 0 128 0C161.948 0 194.505 13.4857 218.51 37.4903C242.514 61.495 256 94.0523 256 128ZM100.608 82.432C123.136 88.32 130.816 118.272 117.76 148.48C103.168 180.992 60.416 184.32 49.152 153.6C43.264 134.656 49.152 108.032 61.952 94.208C72.448 83.2 87.808 78.848 100.608 82.432ZM85.248 97.792C73.984 100.352 67.328 113.152 65.536 134.656C64.768 151.04 69.888 159.488 80.896 159.488C95.488 159.488 104.96 142.336 104.96 117.504C104.96 106.24 102.4 101.12 96.512 98.56C93.952 96.768 88.576 96.768 85.248 97.792ZM206.848 120.832C213.76 103.68 201.728 85.504 185.6 83.2C169.728 80.896 148.736 82.432 148.736 82.432C146.176 83.2 144.384 84.992 143.616 89.088L129.792 168.192C128.768 174.08 132.352 174.08 138.496 174.08H141.312C147.2 174.336 147.712 174.336 150.528 157.696C150.835 155.898 151.097 154.295 151.331 152.866C152.46 145.952 152.927 143.097 154.624 141.824C155.921 141.014 157.628 141.127 160.525 141.319C162.204 141.43 164.282 141.568 166.912 141.568C194.048 141.568 203.008 131.072 206.848 120.832ZM185.6 101.888C193.792 106.496 190.72 120.832 177.152 125.184C173.312 126.72 168.704 126.72 165.376 126.464C164.717 126.464 164.066 126.472 163.434 126.479C160.382 126.514 157.776 126.544 156.928 125.696C155.695 124.216 156.362 121.074 158.015 113.293C158.078 112.997 158.142 112.694 158.208 112.384C159.815 104.495 160.505 101.108 162.562 99.654C164.109 98.56 166.429 98.56 170.496 98.56C178.176 98.56 181.504 99.584 185.6 101.888Z" fill="black"/>
</svg>
